X:18
T: dr Leewägriäbler  Bb (trad.)
T:Dirigenten-Notiz, Edi Gasser. 
C:Unterwalden (CH)
C:
%%partsbox
M:2/4
%Q:1/4=110
R:Naturjuiz
L:1/4
K:Bb
[P:A]  B>F | D F | Bc | d2 | Fe | df | c>F | 
EF | c/f/ d/c/ | B>F | Dd | !fermata!B2 | B>F | DF | 
Bc | d2 | Fe | df | c>F | EF | c/f/ d/c/ | !fermata!B2 || 
[P:B] c>F | EF | f/e/ c/d/ | B>F | DF | B/d/ F/d/ | c>F | EF | 
f/e/ c/d/ | B>F | Dd | !fermata!B2 | c>F | EF | f/e/ c/d/ | B>F | 
DF | B/d/ F/d/ | c>F | EF | f/e/ c/d/ | !fermata!B2 || 
W: Parts: A-B-A-B
W:
W:Leewengruebe oder Leuengrube (Löwengrube), ein Heimwesen in Ennetmoos (NW)
W:= Wohnort des Naturjodlers Adolf Zimmermann  (Hrch. Leuthold)
W:http://www.naturjodler.ch/index_htm_files/00.08 der Leewegriebler-A4.pdf
W:
W:W: UJV-Naturjodelsammlung: Code-Nr: 00-08
W:http://www.naturjodler.ch/tradition-1.htm  (with AUDIO)
%April 21, 2018

